X:1
T: Miss General Maxwell of Parkhill's Reel
C:
R:Reel
Q: 232
K:C
M:4/4
L:1/8
|:G|c2 ec dG BG|c2 ec dA AB|c2 ec dG BG|cA Gc EC CG|
c2 ec dG BG|c2 ec dA AB|c2 ec dG BG|cA Gc EC Ce|
ga gf ec ce|ga ge fd de|ga gf ec ag|ec GB c2 ce|
ga gf ec de|ga ge fd df|ec eg fa gf|fc dB c2 c:|
